X: 1
T: Jackson's
M: 4/4
L: 1/8
R: reel
K: Dmaj
|:F|D2FD EDFE| DEFD EA, ~A,2|CE ~E2 GABd| ceAc dBAF|
D2FD EDFE| DEFD EFG2| Ac ~c2 dBAG| F/2G/2F EG FDD:|
|:g|fd d2 ~d3f| e/2f/2e ^de fe=dB|A2cA BAcB| ABcA Bcde|
 fd d2 ~d3f| e/2f/2e ^de fe=dB|ABde faea|1fd d2 ~d3:|2fddc d/2d/2c dB||
A3A B2AG| FAAF G/2F/2E F/2E/2D| ~E3F GFEG| Agec dBAF|
D2FD EDFE| DEFD EFG2| Ac ~c2 dBAG| FdEd DEFE|
